src/front_end/assets/images/svg/icon_video_player_pause.svg

<svg xmlns="http://www.w3.org/2000/svg" width="14" height="14" viewBox="0 0 14 14"><path fill="#FFF" d="M4.96 14H.29c-.085 0-.155-.027-.21-.08S0 13.794 0 13.71V.29C0 .206.027.136.08.082S.206 0 .29 0h4.67c.085 0 .155.027.21.08s.08.126.08.212V13.71c0 .085-.027.155-.08.21s-.125.08-.21.08zm8.75 0H9.04c-.085 0-.155-.027-.21-.08s-.08-.125-.08-.21V.29c0-.086.027-.156.08-.21S8.956 0 9.04 0h4.67c.085 0 .155.027.21.08s.08.126.08.212V13.71c0 .085-.027.155-.08.21s-.125.08-.21.08z"/></svg>

<?xml version="1.0" encoding="utf-8"?>
<!-- Generator: Adobe Illustrator 16.0.0, SVG Export Plug-In . SVG Version: 6.00 Build 0)  -->
<!DOCTYPE svg PUBLIC "-//W3C//DTD SVG 1.1//EN" "http://www.w3.org/Graphics/SVG/1.1/DTD/svg11.dtd">
<svg version="1.1" xmlns="http://www.w3.org/2000/svg" xmlns:xlink="http://www.w3.org/1999/xlink" x="0px" y="0px" width="14px"
	 height="14px" viewBox="0 0 14 14" enable-background="new 0 0 14 14" xml:space="preserve">
<g id="Layer_2">
</g>
<g id="Layer_1">
	<g>
		<path fill="#FFFFFF" d="M4.959,14H0.291c-0.086,0-0.156-0.027-0.21-0.081S0,13.795,0,13.709V0.292c0-0.086,0.027-0.156,0.081-0.21
			S0.205,0,0.291,0h4.668c0.086,0,0.156,0.027,0.21,0.081S5.25,0.206,5.25,0.292v13.417c0,0.086-0.027,0.156-0.081,0.21
			S5.045,14,4.959,14z M13.709,14H9.041c-0.086,0-0.156-0.027-0.21-0.081s-0.081-0.124-0.081-0.21V0.292
			c0-0.086,0.027-0.156,0.081-0.21S8.955,0,9.041,0h4.668c0.086,0,0.156,0.027,0.21,0.081S14,0.206,14,0.292v13.417
			c0,0.086-0.027,0.156-0.081,0.21S13.795,14,13.709,14z"/>
	</g>
</g>
</svg>
